X:1
T:Title
L:1/8
Q:1/4=168
M:4/4
K:F
V:1 treble nm="Church Organ, Staff"
V:1
 A4 G4 | F4 d4 | A4 G4- | G2 A2 F4 | A4 G4 | F4 G4 | c4 A4 | =B4 c4 | c4 c4 | B4 A4 | A4 A4 | %11
w: By~W.~H.~Monk~(1823\-1889) *|||||||||||
 G4 F4 | G2 A2 B4 | D4 E4 | F4 G4- | G2 G2 F4 | F4 G4 | A4 B4 | A4 B4 | c4 d4 | d4 c4 | A2 G2 F4 | %22
w: |||||||||||
 B4 A4- | A8 | G4 F4- | F8 |] %26
w: ||||

